X:1
T:Follow me, sweet love
T:Follow me, sweet love
T:Michael East (c. 1580-1648)
C:Michael East (c. 1580-1648)
%%score [ 1 2 3 ]
L:1/8
M:3/4
K:C
V:1 treble nm="Soprano"
V:2 treble nm="Alto"
V:3 bass nm="Bass"
V:1
 z6 | d3 c B2 | B3 A G2 | z6 | _B2 A2 G2 | ^F3 E F2 | G6 | z6 | G3 =F E2 | E3 D C2 | G3 F E2 | %11
w: |Fol- low me,|fol- low me,||sweet love and|soul's de- *|light,||fol- low me,|fol- low me,|fol- low me,|
 A3 G ^F2 | =F3 E D2 | d2 d2 _B2 | A4 A2 | =B4 z2 | d2 e2 e2 | e3 d B2 | ^c4 z2 | G2 E2 C2 | %20
w: fol- low me,|fol- low me,|sweet love and|soul's de-|light|or else by|my ex- *|ile|my soul is|
 c4 G2 | E4 z2 | G2 A2 A2 | B4 B2 | c2 G2 E2 | CD EF G2 | z2 G2 E2 | DE FG A2 | z2 A2 F2 | %29
w: se- ver'd|quite,|my soul is|se- ver'd|quite: My hand,|my _ _ _ hand,|my heart,|my _ _ _ heart,|my faith,|
 EF GA B2 | z2 B2 G2 | FG AB c2 | z2 c2 A2 | GA Bc d2 | z2 d2 B2 | GA Bc d2 | e2 d2 c2 | B4 z2 | %38
w: my _ _ _ faith,|my love,|my _ _ _ love,|my life,|my _ _ _ life,|my life,|my _ _ _ life,|my life is|thine,|
 d2 d3 d | d2 d2 d2 | _B2 A3 G | =B4 z2 | e2 d2 c2 | B4 z2 | E2 E3 E | E4 D2 | E4 G2 | ^F3 E F2 | %48
w: O save thine|own if thou|wilt not do|mine,|O save thine|own,|O save thine|own, if|thou wilt|not do _|
 G6 |] %49
w: mine.|
V:2
 z6 | z6 | d3 c B2 | B3 A G2 | D2 d2 _B2 | A4 A2 | =B6 | B3 A G2 | z6 | G3 F E2 | E3 D C2 | %11
w: ||Fol- low me,|fol- low me,|sweet love and|soul's de-|ligh,|fol- low me,||fol- low me,|fol- low me,|
 F3 E D2 | A3 G ^F2 | _B2 A2 G2 | ^F3 E F2 | G4 z2 | =B2 B2 A2 | ^G3 ^F G2 | A4 z2 | z6 | %20
w: fol- low me,|fol- low me,|sweet love and|soul's de- *|light|or else by|my ex- *|ile||
 G2 E2 C2 | c4 G2 | E4 z2 | G2 D2 D2 | E4 z2 | z2 G2 E2 | CD EF G2 | z2 A2 F2 | DE FG A2 | %29
w: my soul is|se- ver'd|quite,|is se- ver'd|quite:|My hand,|my _ _ _ hand,|my heart,|my _ _ _ heart,|
 z2 B2 G2 | EF GA B2 | z2 c2 A2 | FG AB c2 | z2 d2 B2 | GA Bc d2 | z2 d2 B2 | G2 G3 G | G4 z2 | %38
w: my faith,|my _ _ _ faith,|my love,|my _ _ _ love,|my life,|my _ _ _ life,|my life,|my life is|thine,|
 _B2 A2 G2 | ^F3 G A2 | G2 G2 ^F2 | G4 z2 | G2 G3 G | G4 z2 | c2 B2 A2 | ^G4 B2 | c4 c2 | d3 c A2 | %48
w: O save thine|own if thou|wilt not do|mine,|O save thine|own,|O save thine|own, if|thou wilt|not do _|
 B6 |] %49
w: mine.|
V:3
 D3 C B,2 | B,3 A, G,2 | z6 | G,3 F, E,2 | G,2 ^F,2 G,2 | D,4 D,2 | G,6 | G,3 =F, E,2 | %8
w: Fol- low me,|fol- low me,||fol- low me,|sweet love and|sol's de-|light,|fol- low me,|
 E,3 D, C,2 | C,4 C,2 | C,4 z2 | D,4 D,2 | D,4 z2 | G,2 ^F,2 G,2 | D,4 D,2 | G,4 z2 | G,2 E,2 A,2 | %17
w: fol- low me,|fol- low|me,|fol- low|me,|sweet love and|soul's de-|light|or else by|
 E,4 E,2 | A,4 =C2 | C,4 C,2 | C,4 C,2 | C,4 z2 | C2 A,2 F,2 | G,4 G,2 | C,4 C,2 | C,4 C,2 | %26
w: my ex-|ile my|soul is|se- ver's|quite,|my soul is|se- ver'd|quite: My|hand, my|
 C,4 C,2 | D,4 D,2 | D,4 D,2 | E,4 E,2 | E,4 E,2 | F,4 F,2 | F,4 F,2 | G,4 G,2 | G,4 G,2 | G,4 z2 | %36
w: hand, my|heart, my|heart, my|faith, my|faith, my|love, my|love, my|life, my|life, my|life,|
 C2 B,2 C2 | G,4 z2 | G,2 ^F,2 G,2 | D,3 E, ^F,2 | G,2 D,2 D,2 | G,4 z2 | C2 B,2 C2 | G,4 z2 | %44
w: my life is|thine,|O save thine|own if thou|wilt not do|mine,|O save thine|own,|
 A,2 ^G,2 A,2 | E,4 =G,2 | C,4 E,2 | D,4 D,2 | G,6 |] %49
w: O save thine|own, if|thou wilt|not do|mine.|

